X:303
%
T:Miss Dillon's Waltz
M:3/4
L:1/8
F:http://lesters-tune-a-day.blogspot.com/2012/10/tune-49-miss-dillons-waltz.html
K:G
d>B | G2 G2 d>B | G2 G2 d>B | G2 g2 f2 | e4 e>c |
A2 A2 e>c | A2 A2 e2 | dedc BA | G4 :||
F>G | AF D2 d2 | B2 G2 F>G | AF D2 d2 | B4 F>G |
AF D2 d2 | B2 G2 d2 | ^c2 A2 c2 | d4 :||
d2 | cd Bd Ad | Bd Gd Bd | cd Bd Ad | G4 d2 |
cd Bd Ad | Bd Gd Bd | ce Ac FA | G4 :||

